Obsidian-Light/actions/scalable/media-record-symbolic.svg

<svg height="16" width="16" xmlns="http://www.w3.org/2000/svg"><path d="m8 1c-3.8639998 0-7 3.1360001-7 7 0 3.864 3.1360002 7 7 7 3.864 0 7-3.136 7-7 0-3.8639999-3.136-7-7-7zm0 1c3.312 0 6 2.6880001 6 6 0 3.312-2.688 6-6 6-3.3119998 0-6-2.688-6-6 0-3.3119999 2.6880002-6 6-6z" fill="#fff" opacity=".15"/><path d="m8 2c-3.3119998 0-6 2.6880001-6 6 0 3.312 2.6880002 6 6 6 3.312 0 6-2.688 6-6 0-3.3119999-2.688-6-6-6z" fill="#d40000"/></svg>

<?xml version="1.0" encoding="UTF-8" standalone="no"?>
<!-- Created with Inkscape (http://www.inkscape.org/) -->

<svg
   xmlns:dc="http://purl.org/dc/elements/1.1/"
   xmlns:cc="http://creativecommons.org/ns#"
   xmlns:rdf="http://www.w3.org/1999/02/22-rdf-syntax-ns#"
   xmlns:svg="http://www.w3.org/2000/svg"
   xmlns="http://www.w3.org/2000/svg"
   xmlns:xlink="http://www.w3.org/1999/xlink"
   xmlns:sodipodi="http://sodipodi.sourceforge.net/DTD/sodipodi-0.dtd"
   xmlns:inkscape="http://www.inkscape.org/namespaces/inkscape"
   width="16"
   height="16"
   id="svg2"
   sodipodi:version="0.32"
   inkscape:version="0.48.1 r9760"
   version="1.0"
   sodipodi:docname="media-record.svg"
   inkscape:output_extension="org.inkscape.output.svg.inkscape">
  <defs
     id="defs4">
    <inkscape:perspective
       sodipodi:type="inkscape:persp3d"
       inkscape:vp_x="0 : 8 : 1"
       inkscape:vp_y="0 : 1000 : 0"
       inkscape:vp_z="16 : 8 : 1"
       inkscape:persp3d-origin="8 : 5.3333333 : 1"
       id="perspective19" />
    <linearGradient
       id="SpecificGradient"
       x1="6.5625"
       y1="2"
       x2="6.5625"
       y2="14.000651"
       gradientUnits="userSpaceOnUse">
      <stop
         style="stop-color:#ad0707;stop-opacity:1;"
         offset="0"
         id="stop3292" />
      <stop
         style="stop-color:#f75535;stop-opacity:1;"
         offset="1"
         id="stop3294" />
    </linearGradient>
    <inkscape:perspective
       id="perspective3648"
       inkscape:persp3d-origin="0.5 : 0.33333333 : 1"
       inkscape:vp_z="1 : 0.5 : 1"
       inkscape:vp_y="0 : 1000 : 0"
       inkscape:vp_x="0 : 0.5 : 1"
       sodipodi:type="inkscape:persp3d" />
    <linearGradient
       inkscape:collect="always"
       xlink:href="#SpecificGradient"
       id="linearGradient3628"
       gradientUnits="userSpaceOnUse"
       x1="6.5625"
       y1="2"
       x2="6.5625"
       y2="14.000651"
       gradientTransform="translate(-20,0)" />
    <clipPath
       clipPathUnits="userSpaceOnUse"
       id="clipPath3635">
      <path
         style="fill:#ff00ff;fill-opacity:1;stroke:none;display:inline"
         d="m -20,0 0,16 16,0 0,-16 -16,0 z m 8,2 c 3.312,0 6,2.6880001 6,6 0,3.312 -2.688,6 -6,6 -3.312,0 -6,-2.688 -6,-6 0,-3.3119999 2.688,-6 6,-6 z m 0,2.15625 c -0.57648,0 -1.133672,0.1167299 -1.625,0.34375 L -8.5,9.625 C -8.273784,9.1343862 -8.15625,8.5753957 -8.15625,8 -8.15625,5.8708574 -9.870857,4.1562499 -12,4.15625 z m -3.46875,2.125 c -0.255374,0.5152866 -0.375,1.1050247 -0.375,1.71875 0,2.129143 1.714607,3.84375 3.84375,3.84375 0.61479,0 1.202796,-0.118796 1.71875,-0.375 l -5.1875,-5.1875 z"
         id="path3637" />
    </clipPath>
    <filter
       inkscape:collect="always"
       id="filter3639">
      <feGaussianBlur
         inkscape:collect="always"
         stdDeviation="0.36"
         id="feGaussianBlur3641" />
    </filter>
    <linearGradient
       inkscape:collect="always"
       xlink:href="#SpecificGradient"
       id="linearGradient2856"
       gradientUnits="userSpaceOnUse"
       gradientTransform="translate(-20,0)"
       x1="6.5625"
       y1="2"
       x2="6.5625"
       y2="14.000651" />
    <clipPath
       clipPathUnits="userSpaceOnUse"
       id="clipPath2861">
      <path
         style="fill:#ff00ff;fill-opacity:1;stroke:none;display:inline"
         d="m -20,0 0,16 16,0 0,-16 -16,0 z m 8,2 c 3.312,0 6,2.6880001 6,6 0,3.312 -2.688,6 -6,6 -3.312,0 -6,-2.688 -6,-6 0,-3.3119999 2.688,-6 6,-6 z"
         id="path2863" />
    </clipPath>
  </defs>
  <sodipodi:namedview
     id="base"
     pagecolor="#ffffff"
     bordercolor="#e7e7e7"
     borderopacity="1"
     inkscape:pageopacity="0.0"
     inkscape:pageshadow="2"
     inkscape:zoom="16.540628"
     inkscape:cx="-30.639572"
     inkscape:cy="3.1468197"
     inkscape:document-units="px"
     inkscape:current-layer="layer1"
     showgrid="true"
     inkscape:showpageshadow="false"
     showguides="true"
     inkscape:guide-bbox="true"
     inkscape:window-width="1920"
     inkscape:window-height="1028"
     inkscape:window-x="0"
     inkscape:window-y="25"
     inkscape:window-maximized="1">
    <sodipodi:guide
       orientation="1,0"
       position="0,112"
       id="guide2383" />
    <sodipodi:guide
       orientation="0,1"
       position="26.278146,128"
       id="guide2385" />
    <sodipodi:guide
       orientation="1,0"
       position="128,54.082119"
       id="guide2387" />
    <sodipodi:guide
       orientation="0,1"
       position="78.156291,0"
       id="guide2389" />
    <sodipodi:guide
       orientation="0,1"
       position="60.863576,64.084768"
       id="guide2391" />
    <inkscape:grid
       type="xygrid"
       id="grid3672"
       visible="true"
       enabled="true" />
  </sodipodi:namedview>
  <metadata
     id="metadata7">
    <rdf:RDF>
      <cc:Work
         rdf:about="">
        <dc:format>image/svg+xml</dc:format>
        <dc:type
           rdf:resource="http://purl.org/dc/dcmitype/StillImage" />
      </cc:Work>
    </rdf:RDF>
  </metadata>
  <g
     inkscape:label="Calque 1"
     inkscape:groupmode="layer"
     id="layer1">
    <path
       style="fill:#ffffff;fill-opacity:1;stroke:none;opacity:0.15"
       d="M 8 1 C 4.1360002 1 1 4.1360001 1 8 C 1 11.864 4.1360002 15 8 15 C 11.864 15 15 11.864 15 8 C 15 4.1360001 11.864 1 8 1 z M 8 2 C 11.312 2 14 4.6880001 14 8 C 14 11.312 11.312 14 8 14 C 4.6880002 14 2 11.312 2 8 C 2 4.6880001 4.6880002 2 8 2 z "
       id="path3020" />
    <path
       style="fill:#d40000;fill-opacity:1;stroke:none"
       d="M 8,2 C 4.6880002,2 2,4.6880001 2,8 c 0,3.312 2.6880002,6 6,6 3.312,0 6,-2.688 6,-6 C 14,4.6880001 11.312,2 8,2 z"
       id="Symbol"
       class="error"
       inkscape:connector-curvature="0" />
  </g>
</svg>
